X:1
T:Julia Delaney
R:Reel
M:C|
L:1/8
K:Dm
|: "Dm"dcAG (3FGF DF | "C"(3EFE CE "Dm"FDD2 | "Dm"dcAG (3FGF DF | "Am"Add^c "Dm"defe |
  "Dm"dcAG (3FGF DF | "C"(3EFE CE "Dm"FDD2 | "Dm"dcAG (3FGF DF | "Am"Add^c "Dm"d4 :|
|: "Dm"f2fe fagf | "C"(3edc gc ac g2 | "Dm "fede fagf | "Am"edcA Adde |
  "Dm"f2fe fagf |  "C"(3edc gc ac g2  | "Bb"fedf "Gm"edcA | "Am"Add^c "Dm"d4 :|
